X: 04
M: 2/2
L: 1/8
K: G
d2B2 A2G2 | E2 e4 (dc) | d2B2 (A3G) | G6 :|
|: (ef) |\
(gfed) g3B | A2 g4 A2 | (G3A) B2F2 | E2 e4 f2 |\
(gfed) g3B | A2A2 c3d | e2B2 (A3G) | G6 :|

